dist/img/car.svg

<svg width="32" height="32" viewBox="0 0 32 32" fill="none" xmlns="http://www.w3.org/2000/svg">
<path d="M16.0001 4.45508C17.7973 4.45508 19.5363 5.64807 21.0499 6.76149C21.8067 7.3182 22.5041 7.86719 23.0814 8.2626C23.6588 8.65801 24.155 8.85316 24.2465 8.85316V8.85745C26.3302 8.89122 27.746 9.72221 28.5876 10.7065C29.4468 11.7112 29.7462 12.7913 29.7462 13.4875V15.5287C29.7462 16.389 29.0402 17.1017 28.1796 17.1017H25.8957V16.5498C25.8957 15.3283 24.9182 14.3508 23.6967 14.3508C22.4752 14.3508 21.4977 15.3283 21.4977 16.5498V17.1017H11.0522V16.5498C11.0522 15.3283 10.0746 14.3508 8.85317 14.3508C7.63171 14.3508 6.65413 15.3283 6.65413 16.5498V17.1017H3.82051C2.95994 17.1017 2.25391 16.3892 2.25391 15.5287V12.4653C2.25391 12.0903 2.38306 11.8566 2.54704 11.5128C2.69959 11.193 2.90556 10.8376 3.13975 10.4896L3.1376 10.4885C3.60553 9.73593 4.52954 8.26161 5.74145 6.95584C6.95335 5.65008 8.47279 4.45508 10.2308 4.45508L16.0001 4.45508ZM6.54783 7.70425C6.20231 8.07652 5.88848 8.46518 5.59219 8.85101H12.7015V5.5546H10.2308C8.99646 5.5546 7.66773 6.49761 6.54783 7.70425V7.70425ZM13.801 8.85101H22.0238C21.5125 8.4798 20.974 8.06909 20.3992 7.64626C18.9234 6.56065 17.2721 5.5546 16.0001 5.5546H13.801V8.85101ZM4.79225 10.2125C4.57079 10.4118 4.31993 10.7133 4.09753 11.0361C3.87514 11.3589 3.67744 11.7043 3.5424 11.9874C3.40737 12.2706 3.35772 12.5593 3.35772 12.4653V15.5287C3.35772 15.794 3.56286 15.9979 3.8205 15.9979H5.60508C5.86995 14.4439 7.22624 13.2512 8.85317 13.2512C10.4801 13.2512 11.8364 14.4439 12.1013 15.9979H20.4486C20.7135 14.4439 22.0698 13.2512 23.6967 13.2512C25.3236 13.2512 26.6799 14.4439 26.9448 15.9979H28.1796C28.4372 15.9979 28.6424 15.7932 28.6424 15.5287V13.4875C28.6424 13.1693 28.4203 12.2064 27.7501 11.4226C27.0799 10.6389 25.9958 9.95483 24.1197 9.95483H5.20564C5.2021 9.95483 5.0137 10.0132 4.79225 10.2125L4.79225 10.2125ZM25.346 18.7488C27.7685 18.7488 29.7441 20.7244 29.7441 23.1469C29.7441 25.5694 27.7685 27.545 25.346 27.545H2.25605V26.4455H25.346C27.1742 26.4455 28.6445 24.9752 28.6445 23.1469C28.6445 21.3187 27.1742 19.8484 25.346 19.8484H2.25605V18.7488H25.346ZM7.20282 21.648C7.57845 22.0706 7.75365 22.6124 7.75365 23.1469C7.75365 23.6814 7.57845 24.2233 7.20282 24.6459C6.82718 25.0685 6.24181 25.346 5.55461 25.346C4.86741 25.346 4.28204 25.0685 3.90641 24.6459C3.53077 24.2233 3.35557 23.6814 3.35557 23.1469C3.35557 22.6124 3.53077 22.0706 3.90641 21.648C4.28204 21.2254 4.86741 20.9479 5.55461 20.9479C6.24181 20.9479 6.82718 21.2254 7.20282 21.648ZM13.7999 21.648C14.1756 22.0706 14.3508 22.6124 14.3508 23.1469C14.3508 23.6814 14.1756 24.2233 13.7999 24.6459C13.4243 25.0685 12.8389 25.346 12.1517 25.346C11.4645 25.346 10.8792 25.0685 10.5035 24.6459C10.1279 24.2233 9.95269 23.6814 9.95269 23.1469C9.95269 22.6124 10.1279 22.0706 10.5035 21.648C10.8792 21.2254 11.4645 20.9479 12.1517 20.9479C12.8389 20.9479 13.4243 21.2254 13.7999 21.648ZM20.3971 21.648C20.7727 22.0706 20.9479 22.6124 20.9479 23.1469C20.9479 23.6814 20.7727 24.2233 20.3971 24.6459C20.0214 25.0685 19.4361 25.346 18.7489 25.346C18.0617 25.346 17.4763 25.0685 17.1006 24.6459C16.725 24.2233 16.5498 23.6814 16.5498 23.1469C16.5498 22.6124 16.725 22.0706 17.1006 21.648C17.4763 21.2254 18.0617 20.9479 18.7489 20.9479C19.4361 20.9479 20.0214 21.2254 20.3971 21.648ZM26.9942 21.648C27.3698 22.0706 27.545 22.6124 27.545 23.1469C27.545 23.6814 27.3698 24.2233 26.9942 24.6459C26.6185 25.0685 26.0332 25.346 25.346 25.346C24.6588 25.346 24.0734 25.0685 23.6978 24.6459C23.3221 24.2233 23.1469 23.6814 23.1469 23.1469C23.1469 22.6124 23.3221 22.0706 23.6978 21.648C24.0734 21.2254 24.6588 20.9479 25.346 20.9479C26.0332 20.9479 26.6185 21.2254 26.9942 21.648ZM4.7289 22.3781C4.55477 22.574 4.45509 22.8568 4.45509 23.1469C4.45509 23.4371 4.55477 23.7198 4.7289 23.9157C4.90302 24.1116 5.14229 24.2464 5.55461 24.2464C5.96693 24.2464 6.2062 24.1116 6.38033 23.9157C6.55445 23.7198 6.65413 23.4371 6.65413 23.1469C6.65413 22.8568 6.55445 22.574 6.38033 22.3781C6.2062 22.1822 5.96693 22.0474 5.55461 22.0474C5.14229 22.0474 4.90302 22.1822 4.7289 22.3781ZM11.326 22.3781C11.1519 22.574 11.0522 22.8568 11.0522 23.1469C11.0522 23.4371 11.1519 23.7198 11.326 23.9157C11.5001 24.1116 11.7394 24.2464 12.1517 24.2464C12.5641 24.2464 12.8033 24.1116 12.9774 23.9157C13.1516 23.7198 13.2513 23.4371 13.2513 23.1469C13.2513 22.8568 13.1516 22.574 12.9774 22.3781C12.8033 22.1822 12.5641 22.0474 12.1517 22.0474C11.7394 22.0474 11.5001 22.1822 11.326 22.3781ZM17.9231 22.3781C17.749 22.574 17.6493 22.8568 17.6493 23.1469C17.6493 23.4371 17.749 23.7198 17.9231 23.9157C18.0973 24.1116 18.3365 24.2464 18.7489 24.2464C19.1612 24.2464 19.4004 24.1116 19.5746 23.9157C19.7487 23.7198 19.8484 23.4371 19.8484 23.1469C19.8484 22.8568 19.7487 22.574 19.5746 22.3781C19.4004 22.1822 19.1612 22.0474 18.7489 22.0474C18.3365 22.0474 18.0973 22.1822 17.9231 22.3781ZM24.5203 22.3781C24.3461 22.574 24.2465 22.8568 24.2465 23.1469C24.2465 23.4371 24.3461 23.7198 24.5203 23.9157C24.6944 24.1116 24.9337 24.2464 25.346 24.2464C25.7583 24.2464 25.9976 24.1116 26.1717 23.9157C26.3458 23.7198 26.4455 23.4371 26.4455 23.1469C26.4455 22.8568 26.3458 22.574 26.1717 22.3781C25.9976 22.1822 25.7583 22.0474 25.346 22.0474C24.9337 22.0474 24.6944 22.1822 24.5203 22.3781Z" fill="white"/>
</svg>

<svg width="32" height="32" fill="none" xmlns="http://www.w3.org/2000/svg"><path d="M16 4.455c1.797 0 3.536 1.193 5.05 2.306.757.557 1.454 1.106 2.031 1.502.578.395 1.074.59 1.166.59v.004c2.083.034 3.499.865 4.34 1.85.86 1.004 1.16 2.084 1.16 2.78v2.042a1.58 1.58 0 01-1.567 1.573h-2.284v-.552a2.19 2.19 0 00-2.2-2.2 2.19 2.19 0 00-2.198 2.2v.552H11.052v-.552a2.19 2.19 0 00-2.199-2.2 2.19 2.19 0 00-2.199 2.2v.552H3.821a1.579 1.579 0 01-1.567-1.573v-3.064c0-.375.13-.608.293-.952.153-.32.359-.675.593-1.023l-.002-.002c.468-.752 1.392-2.226 2.603-3.532 1.212-1.306 2.732-2.5 4.49-2.5H16zm-9.452 3.25c-.346.372-.66.76-.956 1.146h7.11V5.555H10.23c-1.235 0-2.563.943-3.683 2.15zM13.8 8.85h8.223c-.512-.371-1.05-.782-1.625-1.205-1.475-1.084-3.126-2.09-4.398-2.09h-2.199V8.85zm-9.009 1.361c-.221.2-.472.501-.694.824-.223.323-.42.668-.556.951-.135.284-.184.572-.184.478v3.064a.46.46 0 00.462.469h1.785a3.307 3.307 0 013.248-2.747 3.307 3.307 0 013.248 2.747h8.348a3.307 3.307 0 013.248-2.747 3.307 3.307 0 013.248 2.747h1.235a.461.461 0 00.462-.47v-2.04c0-.319-.222-1.282-.892-2.065-.67-.784-1.754-1.468-3.63-1.468H5.206a1.19 1.19 0 00-.414.258zm20.554 8.537a4.406 4.406 0 014.398 4.398 4.406 4.406 0 01-4.398 4.398H2.256v-1.1h23.09a3.29 3.29 0 003.299-3.298 3.29 3.29 0 00-3.299-3.299H2.256v-1.1h23.09zm-18.142 2.9c.375.423.55.964.55 1.499a2.25 2.25 0 01-.55 1.499c-.376.422-.961.7-1.648.7-.688 0-1.273-.277-1.649-.7a2.246 2.246 0 01-.55-1.5c0-.534.175-1.075.55-1.498.376-.423.961-.7 1.649-.7.687 0 1.272.277 1.648.7zm6.597 0c.376.423.55.964.55 1.499 0 .534-.174 1.076-.55 1.499-.376.422-.961.7-1.648.7-.688 0-1.273-.277-1.648-.7a2.247 2.247 0 01-.551-1.5c0-.534.175-1.075.55-1.498.376-.423.961-.7 1.649-.7.687 0 1.272.277 1.648.7zm6.597 0c.376.423.55.964.55 1.499 0 .534-.174 1.076-.55 1.499-.376.422-.96.7-1.648.7-.687 0-1.273-.277-1.648-.7a2.246 2.246 0 01-.551-1.5c0-.534.175-1.075.55-1.498.376-.423.962-.7 1.649-.7s1.272.277 1.648.7zm6.597 0c.376.423.551.964.551 1.499a2.25 2.25 0 01-.55 1.499c-.377.422-.962.7-1.649.7s-1.273-.277-1.648-.7a2.246 2.246 0 01-.551-1.5c0-.534.175-1.075.55-1.498.376-.423.962-.7 1.649-.7s1.273.277 1.648.7zm-22.265.73a1.17 1.17 0 00-.274.769c0 .29.1.573.274.769.174.196.413.33.826.33.412 0 .651-.134.825-.33a1.17 1.17 0 00.274-.77c0-.29-.1-.572-.274-.768-.174-.196-.413-.33-.825-.33-.413 0-.652.134-.826.33zm6.597 0a1.17 1.17 0 00-.274.769c0 .29.1.573.274.769.174.196.413.33.826.33.412 0 .651-.134.825-.33a1.17 1.17 0 00.274-.77c0-.29-.1-.572-.274-.768-.174-.196-.413-.33-.825-.33-.413 0-.652.134-.826.33zm6.597 0a1.17 1.17 0 00-.274.769c0 .29.1.573.274.769.174.196.414.33.826.33s.651-.134.826-.33a1.17 1.17 0 00.273-.77c0-.29-.1-.572-.273-.768-.175-.196-.414-.33-.826-.33s-.652.134-.826.33zm6.597 0a1.17 1.17 0 00-.273.769c0 .29.1.573.273.769.174.196.414.33.826.33s.652-.134.826-.33a1.17 1.17 0 00.273-.77c0-.29-.1-.572-.273-.768-.174-.196-.414-.33-.826-.33s-.652.134-.826.33z" fill="#fff"/></svg>
